modules/hawcons-stroke/icons/icon-6-thumb-up.svg

<?xml version="1.0" encoding="UTF-8" standalone="no"?>
<svg width="32px" height="32px" viewBox="0 0 32 32" version="1.1" xmlns="http://www.w3.org/2000/svg" xmlns:xlink="http://www.w3.org/1999/xlink" xmlns:sketch="http://www.bohemiancoding.com/sketch/ns">
    <!-- Generator: Sketch 3.0.3 (7891) - http://www.bohemiancoding.com/sketch -->
    <title>icon 6 thumb up</title>
    <desc>Created with Sketch.</desc>
    <defs></defs>
    <g id="Page-1" stroke="none" stroke-width="1" fill="none" fill-rule="evenodd" sketch:type="MSPage">
        <g id="icon-6-thumb-up" sketch:type="MSArtboardGroup" fill="#929292">
            <path d="M19.2488133,30 L23.5023733,30 C24.8817744,30 26,28.8903379 26,27.5 C26,26.9371936 25.8126296,26.417824 25.4978577,25.9999924 C26.8803322,25.9966522 28,24.8882411 28,23.5 C28,22.864214 27.763488,22.28386 27.3722702,21.8426992 L27.3722702,21.8426992 C28.3231922,21.4895043 29,20.5793268 29,19.5 C29,18.864214 28.763488,18.28386 28.3722702,17.8426992 C29.3231922,17.4895043 30,16.5793268 30,15.5 C30,14.1192881 28.8845825,13 27.4915915,13 L21.4997555,13 C22.5490723,7.9831543 22.0463867,1.99999928 18,2 C13.9536133,2.00000073 16.066359,6.78764706 14.5,9.76269531 C12.9337003,12.7376303 10.000223,12.9999801 10,13 L3.99508929,13 C2.8932319,13 2,13.8933973 2,14.9918842 L2,26.0081158 C2,27.1082031 2.88670635,28 3.99810135,28 L10,28 L16,30 L19.2488133,30 L19.2488133,30 Z M10.5,14 C10.5000014,13.9999997 13.8047349,13.276317 15.3710938,10.3012695 C16.9374527,7.32622128 15.1291504,3.00000043 18,3 C21.1514893,2.99999957 21.5007324,8.5 20.2999878,14 L20.2999878,14 L27.5069036,14 C28.3361142,14 29,14.6715729 29,15.5 C29,16.3342028 28.331518,17 27.5069036,17 L24,17 L24,18 L26.5069036,18 C27.3361142,18 28,18.6715729 28,19.5 C28,20.3342028 27.331518,21 26.5069036,21 L23,21 L23,21 L23,22 L25.5069036,22 C26.3361142,22 27,22.6715729 27,23.5 C27,24.3342028 26.331518,25 25.5069036,25 L22,25 L22,25 L22,26 L23.4983244,26 C24.3288106,26 25,26.6715729 25,27.5 C25,28.3342028 24.3276769,29 23.4983244,29 L19.7508378,29 L16,29 L10,27 L4.00292933,27 C3.43788135,27 3,26.5529553 3,26.0014977 L3,14.9985023 C3,14.4474894 3.44769743,14 3.9999602,14 L10.5,14 L10.5,14 L10.5,14 Z" id="thumb-up" sketch:type="MSShapeGroup"></path>
        </g>
    </g>
</svg>

<svg width="32" height="32" viewBox="0 0 32 32" xmlns="http://www.w3.org/2000/svg"><path d="M19.249 30h4.253C24.882 30 26 28.89 26 27.5c0-.563-.187-1.082-.502-1.5a2.498 2.498 0 0 0 1.874-4.157A2.493 2.493 0 0 0 29 19.5c0-.636-.237-1.216-.628-1.657a2.5 2.5 0 0 0-.88-4.843H21.5c1.05-5.017.546-11-3.5-11s-1.934 4.788-3.5 7.763C12.934 12.738 10 13 10 13H3.995A1.995 1.995 0 0 0 2 14.992v11.016C2 27.108 2.887 28 3.998 28H10l6 2h3.249zM10.5 14s3.305-.724 4.871-3.699C16.937 7.326 15.13 3 18 3c3.151 0 3.5 5.5 2.3 11h7.207c.83 0 1.493.672 1.493 1.5 0 .834-.668 1.5-1.493 1.5H24v1h2.507c.83 0 1.493.672 1.493 1.5 0 .834-.668 1.5-1.493 1.5H23v1h2.507c.83 0 1.493.672 1.493 1.5 0 .834-.668 1.5-1.493 1.5H22v1h1.498a1.5 1.5 0 1 1 0 3H16l-6-2H4.003A.994.994 0 0 1 3 26.001V15A1 1 0 0 1 4 14h6.5z" fill="#929292" fill-rule="evenodd"/></svg>
